images/logos/embed.svg

<svg height="24" viewBox="0 0 110 24" width="110" xmlns="http://www.w3.org/2000/svg"><path d="m71.3727908 41.0087361c-.6338204-3.7311552-3.6581231-5.4084873-6.1638308-5.4084873-2.4771033 0-5.5590994 1.6773321-6.1350647 5.4084873zm79.0878032 9.692857c-1.795325.833691-4.05871 1.2984069-6.419211 1.2984069h-7.514376v-24h1.292852 6.221524c2.360545 0 4.623591.464607 6.418874 1.2982447h4.759604c2.620933 0 5.2131.6363021 6.941319 1.7644767 3.744421 2.3428448 4.83882 6.4212804 4.83882 8.995375 0 1.9957267-.777327 6.2760393-4.83882 8.8790199-1.728219 1.1283369-4.320386 1.7644768-6.941319 1.7644768zm2.876183-19.4650692c2.752121 2.5460091 3.777758 6.084035 3.777758 8.8215725 0 .9546566-.203847 5.3952101-3.790742 8.7058665h.887644c1.929904 0 4.867586 0 7.316408-1.7354286 1.295922-1.0992886 3.340889-3.3262651 3.340889-7.0575825 0-2.834555-1.41147-5.466746-3.629357-7.0858194-1.900814-1.2438807-3.888412-1.6486085-7.02794-1.6486085zm-94.2628817 11.5946232c.1441529 3.0946907 3.0243026 5.7268817 6.1062988 5.7268817 2.8803113-.0577719 4.9252791-1.7644767 5.6453973-3.7314797h2.1312656c-1.0943988 3.1527872-4.118863 5.5535661-7.747897 5.5535661-4.4068456 0-8.20896-3.5865631-8.20896-8.2722527 0-4.4831634 3.6004296-8.2428799 8.1801941-8.3300246 3.456115.0290482 5.9044524 2.0828713 7.0277787 4.0497119 1.0657944 1.7063804 1.2960835 3.4708571 1.2097857 5.0035973zm16.3007554-8.6479323 2.0162018-.0001623v1.8220864l-.0575319-.0580965v.0580965h.0575319c.8927139-1.5617883 2.8227794-2.227301 4.2917819-2.227301 1.3246878 0 4.1187014.6075785 5.2997211 3.0367565 1.1808582-2.429178 3.9747101-3.0367565 5.2998828-3.0367565 2.4190866 0 6.3074988 1.4462445 6.3074988 6.8260081v9.4002651h-2.0160402v-9.1688529c0-1.7352663-.3169102-2.5739324-.7199566-3.2972169-.6625863-1.1281746-1.8723721-1.9377925-3.571502-1.9377925-1.6996148 0-2.9094005.8096179-3.5718253 1.9377925-.403208.7232845-.7201182 1.5619506-.7201182 3.2972169v9.1688529h-2.0162018v-9.1688529c0-1.7352663-.3169102-2.5739324-.7199566-3.2972169-.6624248-1.1281746-1.8723721-1.9377925-3.571502-1.9377925-1.6994532 0-2.9092389.8096179-3.5718253 1.9377925-.4030464.7232845-.7199566 1.5619506-.7199566 3.2972169v9.1688529h-2.0162018v-15.8210586zm25.9202163-4.8849701h2.01604v7.6615909h.057855c1.78559-2.5744192 4.435612-3.1819977 6.134904-3.1819977 5.155891.0001623 8.468015 4.0497119 8.468015 8.2720904 0 4.5410976-3.513809 8.3301869-8.468015 8.3301869-1.641922 0-4.377919-.5785303-6.134904-3.1526249h-.057855v2.7766208h-2.01604zm8.208799 6.3020041c-3.629034 0-6.307984 3.0369189-6.307984 6.5076137 0 3.7024315 2.9094 6.4500041 6.307984 6.4500041 3.859807 0 6.452136-2.8921646 6.452136-6.4209559 0-4.0206637-2.99586-6.5366619-6.452136-6.5366619zm12.066505 7.2308983c.14383 3.0946907 3.024464 5.7268817 6.106299 5.7268817 2.880311-.0577719 4.92544-1.7644767 5.645236-3.7314797h2.13175c-1.09456 3.1527872-4.118863 5.5535661-7.74822 5.5535661-4.406684 0-8.208799-3.5865631-8.208799-8.2722527 0-4.4831634 3.60043-8.2428799 8.180033-8.3300246 3.456438.0290482 5.904775 2.0828713 7.028102 4.0497119 1.065794 1.7063804 1.295922 3.4708571 1.209301 5.0035973zm12.298895-1.822411c-.633658-3.7311552-3.658123-5.4084873-6.16383-5.4084873-2.477104 0-5.5591 1.6773321-6.135065 5.4084873z" transform="translate(-57 -28)"/></svg>

<?xml version="1.0" encoding="UTF-8"?>
<svg width="110px" height="24px" viewBox="0 0 110 24" version="1.1" xmlns="http://www.w3.org/2000/svg" xmlns:xlink="http://www.w3.org/1999/xlink">
    <!-- Generator: Sketch 50.2 (55047) - http://www.bohemiancoding.com/sketch -->
    <title>embed</title>
    <desc>Created with Sketch.</desc>
    <defs></defs>
    <g id="Desktop" stroke="none" stroke-width="1" fill="none" fill-rule="evenodd">
        <g id="Work" transform="translate(-1033.000000, -2556.000000)" fill="#000000" fill-rule="nonzero">
            <g id="Clients" transform="translate(80.000000, 1824.000000)">
                <g id="logos" transform="translate(128.000000, 448.000000)">
                    <g id="12" transform="translate(768.000000, 256.000000)">
                        <path d="M71.3727908,41.0087361 C70.7389704,37.2775809 67.7146677,35.6002488 65.20896,35.6002488 C62.7318567,35.6002488 59.6498606,37.2775809 59.0738953,41.0087361 L71.3727908,41.0087361 Z M150.460594,50.7015931 C148.665269,51.5352841 146.401884,52 144.041383,52 L136.527007,52 L136.527007,28 L137.819859,28 L144.041383,28 C146.401928,28 148.664974,28.464607 150.460257,29.2982447 L155.219861,29.2982447 C157.840794,29.2982447 160.432961,29.9345468 162.16118,31.0627214 C165.905601,33.4055662 167,37.4840018 167,40.0580964 C167,42.0538231 166.222673,46.3341357 162.16118,48.9371163 C160.432961,50.0654532 157.840794,50.7015931 155.219861,50.7015931 L150.460594,50.7015931 Z M153.336777,31.2365239 C156.088898,33.782533 157.114535,37.3205589 157.114535,40.0580964 C157.114535,41.012753 156.910688,45.4533065 153.323793,48.7639629 L154.211437,48.7639629 C156.141341,48.7639629 159.079023,48.7639629 161.527845,47.0285343 C162.823767,45.9292457 164.868734,43.7022692 164.868734,39.9709518 C164.868734,37.1363968 163.457264,34.5042058 161.239377,32.8851324 C159.338563,31.6412517 157.350965,31.2365239 154.211437,31.2365239 L153.336777,31.2365239 Z M59.0738953,42.8311471 C59.2180482,45.9258378 62.0981979,48.5580288 65.1801941,48.5580288 C68.0605054,48.5002569 70.1054732,46.7935521 70.8255914,44.8265491 L72.956857,44.8265491 C71.8624582,47.9793363 68.837994,50.3801152 65.20896,50.3801152 C60.8021144,50.3801152 57,46.7935521 57,42.1078625 C57,37.6246991 60.6004296,33.8649826 65.1801941,33.7778379 C68.6363091,33.8068861 71.0846465,35.8607092 72.2079728,37.8275498 C73.2737672,39.5339302 73.5040563,41.2984069 73.4177585,42.8311471 L59.0738953,42.8311471 Z M75.3746507,34.1832148 L77.3908525,34.1830525 L77.3908525,36.0051389 L77.3333206,35.9470424 L77.3333206,36.0051389 L77.3908525,36.0051389 C78.2835664,34.4433506 80.2136319,33.7778379 81.6826344,33.7778379 C83.0073222,33.7778379 85.8013358,34.3854164 86.9823555,36.8145944 C88.1632137,34.3854164 90.9570656,33.7778379 92.2822383,33.7778379 C94.7013249,33.7778379 98.5897371,35.2240824 98.5897371,40.603846 L98.5897371,50.0041111 L96.5736969,50.0041111 L96.5736969,40.8352582 C96.5736969,39.0999919 96.2567867,38.2613258 95.8537403,37.5380413 C95.191154,36.4098667 93.9813682,35.6002488 92.2822383,35.6002488 C90.5826235,35.6002488 89.3728378,36.4098667 88.710413,37.5380413 C88.307205,38.2613258 87.9902948,39.0999919 87.9902948,40.8352582 L87.9902948,50.0041111 L85.974093,50.0041111 L85.974093,40.8352582 C85.974093,39.0999919 85.6571828,38.2613258 85.2541364,37.5380413 C84.5917116,36.4098667 83.3817643,35.6002488 81.6826344,35.6002488 C79.9831812,35.6002488 78.7733955,36.4098667 78.1108091,37.5380413 C77.7077627,38.2613258 77.3908525,39.0999919 77.3908525,40.8352582 L77.3908525,50.0041111 L75.3746507,50.0041111 L75.3746507,34.1830525 L75.3746507,34.1832148 Z M101.294867,29.2982447 L103.310907,29.2982447 L103.310907,36.9598356 L103.368762,36.9598356 C105.154352,34.3854164 107.804374,33.7778379 109.503666,33.7778379 C114.659557,33.7780002 117.971681,37.8275498 117.971681,42.0499283 C117.971681,46.5910259 114.457872,50.3801152 109.503666,50.3801152 C107.861744,50.3801152 105.125747,49.8015849 103.368762,47.2274903 L103.310907,47.2274903 L103.310907,50.0041111 L101.294867,50.0041111 L101.294867,29.2982447 Z M109.503666,35.6002488 C105.874632,35.6002488 103.195682,38.6371677 103.195682,42.1078625 C103.195682,45.810294 106.105082,48.5578666 109.503666,48.5578666 C113.363473,48.5578666 115.955802,45.665702 115.955802,42.1369107 C115.955802,38.116247 112.959942,35.6002488 109.503666,35.6002488 Z M121.570171,42.8311471 C121.714001,45.9258378 124.594635,48.5580288 127.67647,48.5580288 C130.556781,48.5002569 132.60191,46.7935521 133.321706,44.8265491 L135.453456,44.8265491 C134.358896,47.9793363 131.334593,50.3801152 127.705236,50.3801152 C123.298552,50.3801152 119.496437,46.7935521 119.496437,42.1078625 C119.496437,37.6246991 123.096867,33.8649826 127.67647,33.7778379 C131.132908,33.8068861 133.581245,35.8607092 134.704572,37.8275498 C135.770366,39.5339302 136.000494,41.2984069 135.913873,42.8311471 L121.570171,42.8311471 Z M133.869066,41.0087361 C133.235408,37.2775809 130.210943,35.6002488 127.705236,35.6002488 C125.228132,35.6002488 122.146136,37.2775809 121.570171,41.0087361 L133.869066,41.0087361 Z" id="embed"></path>
                    </g>
                </g>
            </g>
        </g>
    </g>
</svg>
